skillsgraph/static/skillsgraph/img/ruby.svg

<svg id="Layer_1" enable-background="new 0 0 512 512" height="512" viewBox="0 0 512 512" width="512" xmlns="http://www.w3.org/2000/svg"><g><g id="XMLID_121_"><g id="XMLID_122_"><g id="XMLID_123_"><g id="XMLID_124_"><g id="XMLID_125_"><g id="XMLID_126_"><g id="XMLID_127_"><g id="XMLID_128_"><g id="XMLID_129_"><g id="XMLID_130_"><g id="XMLID_131_"><g id="XMLID_132_"><g id="XMLID_133_"><g id="XMLID_134_"><circle id="XMLID_135_" cx="256" cy="256" fill="#ffda00" r="256"/></g></g></g></g></g></g></g></g></g></g></g></g></g></g><path d="m512 256c0-12.744-.945-25.266-2.743-37.511l-46.071-46.071-178.186 173.582-29 132 32.011 32.011c126.276-15.753 223.989-123.468 223.989-254.011z" fill="#fec20a"/><g><g><path d="m256 34-207.185 138.417 207.185 305.583 207.185-305.583z" fill="#f9306e"/><path d="m463.19 172.42-207.19 305.58v-444z" fill="#e3134d"/><path d="m256 34-207.185 138.417 122.185 52.482h85 85l122.185-52.482z" fill="#e3134d"/><g><path d="m463.19 172.42-122.19 52.48h-85v-190.9z" fill="#c9003e"/></g><path d="m171 224.899 85 253.101 85-253.101z" fill="#ff649c"/><g fill="#f9306e"><path d="m341 224.9-85 253.1v-253.1z"/><path d="m256 34-85 190.899h170z"/></g></g><path d="m341 224.9h-85v-190.9z" fill="#e3134d"/></g></g></svg>

<svg height="512" width="512" xmlns="http://www.w3.org/2000/svg"><circle cx="256" cy="256" fill="#ffda00" r="256"/><path d="M512 256c0-12.744-.945-25.266-2.743-37.511l-46.071-46.071L285 346l-29 132 32.011 32.011C414.287 494.258 512 386.543 512 256z" fill="#fec20a"/><path d="M256 34L48.815 172.417 256 478l207.185-305.583z" fill="#f9306e"/><path d="M463.19 172.42L256 478V34z" fill="#e3134d"/><path d="M256 34L48.815 172.417 171 224.899h170l122.185-52.482z" fill="#e3134d"/><path d="M463.19 172.42L341 224.9h-85V34z" fill="#c9003e"/><path d="M171 224.899L256 478l85-253.101z" fill="#ff649c"/><path d="M341 224.9L256 478V224.9zM256 34l-85 190.899h170z" fill="#f9306e"/><path d="M341 224.9h-85V34z" fill="#e3134d"/></svg>
